X:301
T: Der Tod als Schnitter
N: A0650
O: Europa, Mitteleuropa, Deutschland
N:  Fl. Blatt von 1638 und oefter
R: Romanze, Ballade, Lied, religioeses Lied
M: 3/2
L: 1/4
K: G
G2 | G4_B2 | A4G2 | =F4_E2 | D4
d2 | d3c_B2 | c3_BA2 | _B6 | z4
G2 | G4_B2 | A4G2 | =F4_E2 | D4
d2 | d3c_B2 | c3_BA2 | _B6 | z4
d2 | d3cd2 | _B3cd2 | c3_Bc2 | A3_B
c2 | _B3AB2 | G3A_B2 | A3GA2 | F4D2
d2c_B | AAG2 | z4

